src/basic.svg

<svg width="178" height="178" viewBox="0 0 178 178" fill="none" xmlns="http://www.w3.org/2000/svg">
<path d="M113.8 91.5544C107.219 98.1359 98.2926 101.833 88.985 101.833C79.6774 101.833 70.751 98.1359 64.1695 91.5544C57.5881 84.9729 53.8906 76.0465 53.8906 66.7389C53.8906 57.4313 57.5881 48.5049 64.1695 41.9234C70.751 35.342 79.6774 31.6445 88.985 31.6445C98.2926 31.6445 107.219 35.342 113.8 41.9234C120.382 48.5049 124.079 57.4313 124.079 66.7389C124.079 76.0465 120.382 84.9729 113.8 91.5544ZM88.985 93.9347C92.5564 93.9347 96.0928 93.2313 99.3924 91.8645C102.692 90.4978 105.69 88.4946 108.215 85.9692C110.741 83.4439 112.744 80.4458 114.111 77.1463C115.477 73.8467 116.181 70.3103 116.181 66.7389C116.181 63.1675 115.477 59.6311 114.111 56.3315C112.744 53.032 110.741 50.034 108.215 47.5086C105.69 44.9832 102.692 42.98 99.3924 41.6133C96.0928 40.2466 92.5564 39.5431 88.985 39.5431C81.7722 39.5431 74.8549 42.4084 69.7547 47.5086C64.6545 52.6088 61.7892 59.5261 61.7892 66.7389C61.7892 73.9517 64.6545 80.869 69.7547 85.9692C74.8549 91.0694 81.7722 93.9347 88.985 93.9347Z" fill="black" stroke="white"/>
<path d="M132.101 157.082L132.164 157.042L137.928 146.017L138.428 146.02C138.428 146.019 138.428 146.019 138.428 146.018C138.443 143.666 137.607 141.389 136.073 139.606C134.54 137.822 132.413 136.654 130.085 136.317L130.081 136.316C99.5454 132.088 78.5281 131.704 48.0203 136.161C43.1633 136.87 39.5442 141.103 39.5437 146.136C39.5384 148.343 40.2609 150.491 41.5993 152.247L41.6005 152.248C42.6973 153.675 43.7849 155.057 44.8545 156.394L44.9044 156.456L44.9713 156.5C58.0556 165.053 73.3539 169.597 88.9859 169.573C104.253 169.598 119.211 165.264 132.101 157.082ZM146.262 144.493L146.356 145.592L147.12 144.798C161.552 129.805 169.602 109.796 169.573 88.9853C169.573 44.479 133.492 8.39859 88.9859 8.39859C44.4796 8.39859 8.39896 44.479 8.39859 88.9853C8.37014 109.8 16.4231 129.813 30.8605 144.807L31.621 145.596L31.7187 144.504C32.4464 136.375 38.5739 129.556 46.8788 128.345L46.8789 128.345C78.2162 123.766 99.9877 124.178 131.163 128.493L131.232 127.997L131.164 128.493C139.419 129.634 145.569 136.39 146.262 144.493ZM177.472 88.9859C177.472 137.857 137.857 177.472 88.9859 177.472C40.1152 177.472 0.5 137.857 0.5 88.9859C0.5 40.1152 40.1152 0.5 88.9859 0.5C137.857 0.5 177.472 40.1152 177.472 88.9859Z" fill="black" stroke="white"/>
</svg>

<svg xmlns="http://www.w3.org/2000/svg" width="178" height="178" fill="none"><path fill="#000" stroke="#fff" d="M113.8 91.554a35.09 35.09 0 0 1-49.63 0 35.095 35.095 0 1 1 49.63 0Zm-24.815 2.38a27.195 27.195 0 1 0 0-54.39 27.196 27.196 0 0 0 0 54.39Z"/><path fill="#000" stroke="#fff" d="m132.101 157.082.063-.04 5.764-11.025.5.003v-.002a9.73 9.73 0 0 0-2.355-6.412 9.73 9.73 0 0 0-5.988-3.289l-.004-.001c-30.536-4.228-51.553-4.612-82.06-.155-4.858.709-8.477 4.942-8.477 9.975a10.04 10.04 0 0 0 2.055 6.111l.002.001a271 271 0 0 0 3.254 4.146l.05.062.066.044a80.2 80.2 0 0 0 44.015 13.073 80.2 80.2 0 0 0 43.115-12.491Zm14.161-12.589.094 1.099.764-.794a80.32 80.32 0 0 0 22.453-55.813c0-44.506-36.081-80.586-80.587-80.586S8.399 44.479 8.399 88.985a80.32 80.32 0 0 0 22.462 55.822l.76.789.098-1.092c.727-8.129 6.855-14.948 15.16-16.159 31.337-4.579 53.109-4.167 84.284.148l.069-.496-.068.496c8.255 1.141 14.405 7.897 15.098 16Zm31.21-55.507c0 48.871-39.615 88.486-88.486 88.486C40.116 177.472.5 137.857.5 88.986.5 40.116 40.115.5 88.986.5s88.486 39.615 88.486 88.486Z"/></svg>
